manual-assets/community/dde/common/Ctrl.svg

<?xml version="1.0" encoding="UTF-8" standalone="no"?>
<!-- Generator: Adobe Illustrator 18.0.0, SVG Export Plug-In . SVG Version: 6.00 Build 0)  -->

<svg
   xmlns:dc="http://purl.org/dc/elements/1.1/"
   xmlns:cc="http://creativecommons.org/ns#"
   xmlns:rdf="http://www.w3.org/1999/02/22-rdf-syntax-ns#"
   xmlns:svg="http://www.w3.org/2000/svg"
   xmlns="http://www.w3.org/2000/svg"
   xmlns:sodipodi="http://sodipodi.sourceforge.net/DTD/sodipodi-0.dtd"
   xmlns:inkscape="http://www.inkscape.org/namespaces/inkscape"
   version="1.1"
   id="图层_1"
   x="0px"
   y="0px"
   viewBox="0 0 30 20"
   enable-background="new 0 0 30 20"
   xml:space="preserve"
   sodipodi:docname="Ctrl.svg"
   width="30"
   height="20"
   inkscape:version="0.92.1 r15371"><metadata
     id="metadata21"><rdf:RDF><cc:Work
         rdf:about=""><dc:format>image/svg+xml</dc:format><dc:type
           rdf:resource="http://purl.org/dc/dcmitype/StillImage" /><dc:title></dc:title></cc:Work></rdf:RDF></metadata><defs
     id="defs19" /><sodipodi:namedview
     pagecolor="#ffffff"
     bordercolor="#666666"
     borderopacity="1"
     objecttolerance="10"
     gridtolerance="10"
     guidetolerance="10"
     inkscape:pageopacity="0"
     inkscape:pageshadow="2"
     inkscape:window-width="836"
     inkscape:window-height="480"
     id="namedview17"
     showgrid="false"
     fit-margin-top="0"
     fit-margin-left="0"
     fit-margin-right="0"
     fit-margin-bottom="0"
     inkscape:zoom="10.7"
     inkscape:cx="15"
     inkscape:cy="10"
     inkscape:window-x="0"
     inkscape:window-y="0"
     inkscape:window-maximized="0"
     inkscape:current-layer="图层_1" /><g
     id="g14"><path
       d="M 25.667,19.5 H 4.333 C 2.225,19.5 0.5,17.775 0.5,15.667 V 4.333 C 0.5,2.225 2.225,0.5 4.333,0.5 h 21.334 c 2.108,0 3.833,1.725 3.833,3.833 v 11.334 c 0,2.108 -1.725,3.833 -3.833,3.833 z"
       id="path2"
       inkscape:connector-curvature="0"
       style="opacity:0.1;fill:#ffffff" /><path
       d="m 16,13.811 c 0,0.114 -0.342,0.171 -0.697,0.171 C 14.336,13.982 14,13.447 14,12.376 V 9 H 13 V 8 h 1 V 6.728 L 15,6.425 V 8 h 1 v 1 h -1 v 3.204 c 0,0.355 -0.027,0.612 0.094,0.765 0.121,0.153 0.232,0.227 0.512,0.227 0.215,0 0.394,-0.181 0.394,-0.181 z"
       id="path4"
       inkscape:connector-curvature="0" /><path
       d="M 20,9.077 C 20,8.952 19.577,8.888 19.297,8.888 18.926,8.888 18.611,9.08 18.37,9.463 18.13,9.846 18,10.35 18,10.976 V 14 H 17 V 8 h 1 V 9 H 17.994 C 18.266,8.203 18.783,7.969 19.454,7.969 19.828,7.969 20,8.18 20,8.234 Z"
       id="path6"
       inkscape:connector-curvature="0" /><path
       d="M 21,14 V 5 h 1 v 9 z"
       id="path8"
       inkscape:connector-curvature="0" /><path
       stroke-miterlimit="10"
       d="m 25.5,19.5 h -21 c -2.209,0 -4,-1.791 -4,-4 v -11 c 0,-2.209 1.791,-4 4,-4 h 21 c 2.209,0 4,1.791 4,4 v 11 c 0,2.209 -1.791,4 -4,4 z"
       id="path10"
       inkscape:connector-curvature="0"
       style="fill:none;stroke:#cbcbcb;stroke-miterlimit:10" /><path
       d="M 12,12.116 C 11.468,12.659 10.779,13 10.017,13 8.354,13 7,11.43 7,9.5 7,7.57 8.354,6 10.017,6 10.779,6 11.468,6.341 12,6.884 V 5.609 C 11.413,5.232 10.742,5 10.017,5 7.798,5 6,7.015 6,9.5 6,11.985 7.798,14 10.017,14 10.742,14 11.413,13.768 12,13.391 Z"
       id="path12"
       inkscape:connector-curvature="0" /></g></svg>

<?xml version="1.0" encoding="UTF-8"?>
<svg width="30px" height="20px" viewBox="0 0 30 20" version="1.1" xmlns="http://www.w3.org/2000/svg" xmlns:xlink="http://www.w3.org/1999/xlink">
    <!-- Generator: Sketch 64 (93537) - https://sketch.com -->
    <title>Ctrl</title>
    <desc>Created with Sketch.</desc>
    <g id="页面-1" stroke="none" stroke-width="1" fill="none" fill-rule="evenodd">
        <g id="Ctrl">
            <path d="M25.667,19.5 L4.333,19.5 C2.225,19.5 0.5,17.775 0.5,15.667 L0.5,4.333 C0.5,2.225 2.225,0.5 4.333,0.5 L25.667,0.5 C27.775,0.5 29.5,2.225 29.5,4.333 L29.5,15.667 C29.5,17.775 27.775,19.5 25.667,19.5 Z" id="路径" fill="#FFFFFF" fill-rule="nonzero"></path>
            <path d="M16,13.811 C16,13.925 15.658,13.982 15.303,13.982 C14.336,13.982 14,13.447 14,12.376 L14,9 L13,9 L13,8 L14,8 L14,6.728 L15,6.425 L15,8 L16,8 L16,9 L15,9 L15,12.204 C15,12.559 14.973,12.816 15.094,12.969 C15.215,13.122 15.326,13.196 15.606,13.196 C15.821,13.196 16,13.015 16,13.015 L16,13.811 Z" id="路径" fill="#000000" fill-rule="nonzero"></path>
            <path d="M20,9.077 C20,8.952 19.577,8.888 19.297,8.888 C18.926,8.888 18.611,9.08 18.37,9.463 C18.13,9.846 18,10.35 18,10.976 L18,14 L17,14 L17,8 L18,8 L18,9 L17.994,9 C18.266,8.203 18.783,7.969 19.454,7.969 C19.828,7.969 20,8.18 20,8.234 L20,9.077 Z" id="路径" fill="#000000" fill-rule="nonzero"></path>
            <polygon id="路径" fill="#000000" fill-rule="nonzero" points="21 14 21 5 22 5 22 14"></polygon>
            <path d="M25.5,19.5 L4.5,19.5 C2.291,19.5 0.5,17.709 0.5,15.5 L0.5,4.5 C0.5,2.291 2.291,0.5 4.5,0.5 L25.5,0.5 C27.709,0.5 29.5,2.291 29.5,4.5 L29.5,15.5 C29.5,17.709 27.709,19.5 25.5,19.5 Z" id="路径" stroke="#CBCBCB"></path>
            <path d="M12,12.116 C11.468,12.659 10.779,13 10.017,13 C8.354,13 7,11.43 7,9.5 C7,7.57 8.354,6 10.017,6 C10.779,6 11.468,6.341 12,6.884 L12,5.609 C11.413,5.232 10.742,5 10.017,5 C7.798,5 6,7.015 6,9.5 C6,11.985 7.798,14 10.017,14 C10.742,14 11.413,13.768 12,13.391 L12,12.116 Z" id="路径" fill="#000000" fill-rule="nonzero"></path>
        </g>
    </g>
</svg>
